build/svg/cmd/lc_autooutline.svg

<?xml version="1.0" encoding="UTF-8" standalone="no"?>
<svg
   xmlns:dc="http://purl.org/dc/elements/1.1/"
   xmlns:cc="http://creativecommons.org/ns#"
   xmlns:rdf="http://www.w3.org/1999/02/22-rdf-syntax-ns#"
   xmlns:svg="http://www.w3.org/2000/svg"
   xmlns="http://www.w3.org/2000/svg"
   xmlns:sodipodi="http://sodipodi.sourceforge.net/DTD/sodipodi-0.dtd"
   xmlns:inkscape="http://www.inkscape.org/namespaces/inkscape"
   viewBox="0 0 24 24"
   version="1.1"
   id="svg6"
   sodipodi:docname="lc_autooutline.svg"
   inkscape:export-filename="/home/jupiter007/Libreoffice yaru theme fullcolor/build/cmd/lc_autooutline.png"
   inkscape:export-xdpi="96"
   inkscape:export-ydpi="96"
   inkscape:version="0.92.5 (2060ec1f9f, 2020-04-08)">
  <metadata
     id="metadata12">
    <rdf:RDF>
      <cc:Work
         rdf:about="">
        <dc:format>image/svg+xml</dc:format>
        <dc:type
           rdf:resource="http://purl.org/dc/dcmitype/StillImage" />
      </cc:Work>
    </rdf:RDF>
  </metadata>
  <defs
     id="defs10" />
  <sodipodi:namedview
     pagecolor="#ffffff"
     bordercolor="#666666"
     borderopacity="1"
     objecttolerance="10"
     gridtolerance="10"
     guidetolerance="10"
     inkscape:pageopacity="0"
     inkscape:pageshadow="2"
     inkscape:window-width="1920"
     inkscape:window-height="1011"
     id="namedview8"
     showgrid="true"
     inkscape:zoom="27.812867"
     inkscape:cx="9.0353942"
     inkscape:cy="14.093257"
     inkscape:window-x="0"
     inkscape:window-y="32"
     inkscape:window-maximized="1"
     inkscape:current-layer="svg6">
    <inkscape:grid
       type="xygrid"
       id="grid832" />
  </sodipodi:namedview>
  <path
     style="opacity:0.6;fill:#000000;fill-opacity:1;stroke:#000000;stroke-width:2;stroke-linejoin:round;stroke-miterlimit:4;stroke-dasharray:none;stroke-opacity:1"
     d="M 15 4 L 15 7 L 19 7 L 19 4 L 15 4 z M 15 8 L 15 11 L 19 11 L 19 8 L 15 8 z M 15 12 L 15 15 L 19 15 L 19 12 L 15 12 z M 15 16 L 15 19 L 19 19 L 19 16 L 15 16 z "
     id="rect842" />
  <rect
     style="opacity:1;fill:#ffffff;fill-opacity:1;stroke:none;stroke-width:1.41421354;stroke-linejoin:round;stroke-miterlimit:4;stroke-dasharray:none;stroke-opacity:1"
     id="rect834"
     width="4"
     height="3"
     x="15"
     y="4" />
  <rect
     y="8"
     x="15"
     height="3"
     width="4"
     id="rect836"
     style="opacity:1;fill:#ffffff;fill-opacity:1;stroke:none;stroke-width:1.41421354;stroke-linejoin:round;stroke-miterlimit:4;stroke-dasharray:none;stroke-opacity:1" />
  <rect
     style="opacity:1;fill:#ffffff;fill-opacity:1;stroke:none;stroke-width:1.41421354;stroke-linejoin:round;stroke-miterlimit:4;stroke-dasharray:none;stroke-opacity:1"
     id="rect838"
     width="4"
     height="3"
     x="15"
     y="12" />
  <rect
     y="16"
     x="15"
     height="3"
     width="4"
     id="rect840"
     style="opacity:1;fill:#ffffff;fill-opacity:1;stroke:none;stroke-width:1.41421354;stroke-linejoin:round;stroke-miterlimit:4;stroke-dasharray:none;stroke-opacity:1" />
  <path
     inkscape:connector-curvature="0"
     style="opacity:0.6;fill:#000000"
     d="M 13.171874,7.9999995 0,21.171875 2.828125,24 15.999999,10.828124 Z"
     id="path840" />
  <path
     inkscape:connector-curvature="0"
     style="fill:#ffffff;fill-opacity:1"
     d="m 13.103514,9.4824214 1.414062,1.4140626 -3.097655,3.099609 -1.416016,-1.416016 z"
     id="path838" />
  <rect
     style="opacity:1;fill:#fa9381;fill-opacity:1;stroke:none;stroke-width:1.00675654;stroke-linecap:round;stroke-linejoin:round;stroke-miterlimit:4;stroke-dasharray:none;stroke-opacity:1"
     id="rect819"
     width="11.149147"
     height="2"
     x="-13.970777"
     y="15.971852"
     ry="0"
     transform="rotate(-45)" />
</svg>

<svg xmlns="http://www.w3.org/2000/svg" viewBox="0 0 24 24"><path d="M15 4v3h4V4h-4zm0 4v3h4V8h-4zm0 4v3h4v-3h-4zm0 4v3h4v-3h-4z" opacity=".6" stroke="#000" stroke-width="2" stroke-linejoin="round"/><path fill="#fff" d="M15 4h4v3h-4zM15 8h4v3h-4zM15 12h4v3h-4zM15 16h4v3h-4z"/><path d="M13.172 8L0 21.172 2.828 24 16 10.828z" opacity=".6"/><path d="M13.104 9.482l1.414 1.414-3.098 3.1-1.416-1.416z" fill="#fff"/><rect width="11.149" height="2" x="-13.971" y="15.972" ry="0" transform="rotate(-45)" fill="#fa9381"/></svg>
